X:4
T:Tramp! Tramp! Tramp!
% Four-part piano arrangement for standard notation.
C:G.F.R./Geo. F. Root
S:Source "The One Hundred and One Best Songs" - The Cable Company - 1919 - Chicago, Illinois
M:4/4
L:1/8
Q:1/4=100
%%staves [(1 2) (3 4)]
K:Bb
V:1 clef=treble
F > E | D > F B > c B2 B > A | G > B B > G F2 F > E |
w:1.~In the pris-on cell I sit, Think-ing, Moth-er dear, of you, And our
w:2.~In the bat-tle front we stood When their fierc-est charge they made, And they
w:3.~So with-in the pris-on cell We are wait-ing for the day That shall
V:2 clef=treble
D > C | B, > D D > E D2 F > F | E > G G > E D2 D > C |
V:3 clef=bass
%%MIDI transpose -24
%%jsastem=dn
b > f | f > b b > b b2 b > b | b > e' e' > b b2 b > f |
V:4 clef=bass
%%MIDI transpose -24
%%jsastem=dn
B > B | B > B B > B B2 d > d | e > e e > e B2 B > B |
V:1
D > F B > c d > d c > B | c6 F > E | D > F B > c B2 B > A |
w:bright and hap-py home so far a-way; And the tears they fill my eyes Spite of
w:swept us off, a hun-dred men or more; But be-fore we reached their lines They were
w:come to o-pen wide the i-ron door; And the hol-low eyes grow bright, And the
V:2
B, > D D > E F > F F > =E | F6 D > C | B, > D D > E D2 F > F |
V:3
f > b b > b b > b c' > c' | a6 b > f | f > b b > b b2 b > b |
V:4
B > B b > b b > b a > g | f6 B > B | B > B B > B B2 d > d |
V:1
G > B B > G F2 d > c | B > A B > G A > F A > c | B6 z2 |
w:all that I can do, Tho' I try to cheer my com-rades and be gay.
w:beat-en back, dis-mayed, And we heard the cry of vic-t'ry o'er and o'er.
w:poor heart al-most gay, As we think of see-ing home and friends once more.
V:2
E > G G > E D2 F > F | G > G G > E E > E E > E | D6 z2 |
V:3
b > e' e' > b b2 b > b | b > b e' > e' c' > a c' > f | f6 z2 |
V:4
e > e e > e B2 B > d | e > e e > e f > f f > f | B6 z2 |
V:1
"^CHORUS."d2 d2 d > c B > G | F4 B4 x | c2 c2 d > c B > d |
w:Tramp! tramp! tramp! the boys are march-ing, Cheer up, com-rades, they will
V:2
F2 F2 F > E E > E | D2 D2 D2 D2 x | F2 F2 F2 F2 |
w:
w:* * * * * * march-ing on, O cheer up, com- rades,
V:3
b2 b2 f > f g > g | b2 b2 f2 f2 x | a2 a2 b2 b2 |
V:4
B2 B2 B > B B > B | B2 B2 B2 B2 x | f2 f2 B2 d2 |
V:1
c6 F > E | D > F B > c B2 B > A |
V:2
F2 F2 F2 B, > A, | B, > D D > E D2 D > F |
w:come,** And be-neath the star-ry flag We shall
w:they will come,
V:3
a2 a2 a2 f > f | f > f f > f f2 b > b |
V:4
f2 f2 f e d > c | B > B B > B B2 B > B |
V:1
G > B B > G F2 d > c | B > A B > G A > F A > c | B6 |]
w:
w:breathe the air a-gain Of the free-land in our own be-lov-ed home.
V:2
E > G G > E D2 D > D | E > E E > E C > C E > E | D6 |]
V:3
b > b b > b b2  f > f | g > g g > g f > a c' > a | b6 |]
V:4
e > e e > e B2 B > B | e > e e > e f > f f > f | B6 |]

%%newpage

